X: 22727
T: Lamentation Of The Dead Perch, The
R: jig
M: 6/8
K: Gmajor
|:EFE FGA|BGE F2E|DED DEF|ABA AGF|
EFE FGA|BGE FGA|BGE FED|E3 B,3:|
|:ege g2a|gef g3|GAG GAB|ded dcB|
eaa aga|bag gfg|ecA BAG|A3 E3:|

